X: 65
T: Vous marchez / Marionnette
N: Derived from Bus3061-Vous_marchez__Marionnette.krn
C: Antoine Busnoys
%%abc-version 2.0
%%abcx-abcm2ps-target-version 5.9.1 (29 Sep 2008)
%%abc-creator hum2abc beta
%%abcx-conversion-date 2019/02/16 20:26:07
%%abc-edited-by Jesse Rodin
%%abc-edited-by Chris Gage 04-15-2015
%%abcx-initial-encoding-date 2015/05/13/
%%humdrum-veritas 3085685041
%%humdrum-veritas-data 2615015113
%%linebreak <none>
%%barnumbers 0
L: 1/4
M: 2/1
Q: 1/2=120
%%staves [1 2 3 4]
V: 1 clef=treble
V: 2 clef=treble-8
V: 3 clef=treble-8
V: 4 clef=bass
K: C
[V:1] F4c4 | 
[V:2] z8 | 
[V:3] F8 | 
[V:4] z8 | 
[V:1] c4d4 | 
[V:2] c4g4 | 
[V:3] z8 | 
[V:4] A,3A,_B,4 | 
[V:1] _B4c4 | 
[V:2] g4a4 | 
[V:3] z8 | 
[V:4] G,4F,4 | 
[V:1] A4z4 | 
[V:2] f4g4 | 
[V:3] F4c4 | 
[V:4] z8 | 
[V:1] G3A_B4 | 
[V:2] e4z4 | 
[V:3] c4d4 | 
[V:4] C,4G,4 | 
[V:1] G4F3G | 
[V:2] d3ef4 | 
[V:3] _B4c4 | 
[V:4] G,4A,4 | 
[V:1] A4_B4 | 
[V:2] d2d4c_B | 
[V:3] A4z4 | 
[V:4] F,4G,4 | 
[V:1] G6F2 | 
[V:2] c2_BAG4 | 
[V:3] z8 | 
[V:4] E,4E,3E, | 
[V:1] A4F4 | 
[V:2] z2c2d2f2 | 
[V:3] A3A_B4 | 
[V:4] F,4D,4 | 
[V:1] G4A4 | 
[V:2] e3df4 | 
[V:3] G4F4 | 
[V:4] C,4z4 | 
[V:1] F4c4 | 
[V:2] z8 | 
[V:3] z8 | 
[V:4] F,8 | 
[V:1] c4d4 | 
[V:2] c4g4 | 
[V:3] z8 | 
[V:4] A,3A,_B,4 | 
[V:1] _B4c4 | 
[V:2] g4a4 | 
[V:3] z8 | 
[V:4] G,4F,4 | 
[V:1] A4z4 | 
[V:2] f4g4 | 
[V:3] F4c4 | 
[V:4] z8 | 
[V:1] G4_B4 | 
[V:2] e4d4 | 
[V:3] c4d4 | 
[V:4] C,4G,4 | 
[V:1] _B4A2A2- | 
[V:2] d4c4- | 
[V:3] _B4c4 | 
[V:4] G,4A,4 | 
[V:1] A2GFE4- | 
[V:2] c2d2e4- | 
[V:3] A4z4 | 
[V:4] F,4G,4 | 
[V:1] E2F2G2FG | 
[V:2] e2c2c4- | 
[V:3] G4G4 | 
[V:4] E,8 | 
[V:1] A4G2F2- | 
[V:2] c2_B2_B2A2 | 
[V:3] F4F4 | 
[V:4] D,4D,4 | 
[V:1] F2E2E2D2 | 
[V:2] c8 | 
[V:3] G4G4 | 
[V:4] C,8 | 
[V:1] F4z4 | 
[V:2] A6F2 | 
[V:3] F8 | 
[V:4] z4F,4- | 
[V:1] c8 | 
[V:2] F8 | 
[V:3] z8 | 
[V:4] F,4A,4 | 
[V:1] B4B4 | 
[V:2] z8 | 
[V:3] d4e4 | 
[V:4] G,8 | 
[V:1] A4A4 | 
[V:2] z8 | 
[V:3] f8 | 
[V:4] F,8 | 
[V:1] B6AG | 
[V:2] z8 | 
[V:3] g8 | 
[V:4] E,8 | 
[V:1] A2d4c2- | 
[V:2] z8 | 
[V:3] f4e4 | 
[V:4] F,4C,4 | 
[V:1] c2B2c4 | 
[V:2] z8 | 
[V:3] d4c4 | 
[V:4] G,4A,4 | 
[V:1] A2B4G2 | 
[V:2] z8 | 
[V:3] d4e4 | 
[V:4] F,2G,4E,2 | 
[V:1] F2A4GF | 
[V:2] z8 | 
[V:3] f8 | 
[V:4] D,4D,4 | 
[V:1] E2C2D4 | 
[V:2] z8 | 
[V:3] g6f2 | 
[V:4] C,4B,,4 | 
[V:1] C2c3BBA | 
[V:2] z8 | 
[V:3] e3cd4 | 
[V:4] C,4G,4 | 
[V:1] c8 | 
[V:2] z8 | 
[V:3] c8 | 
[V:4] C,3D,E,2F,2- | 
[V:1] z4G4 | 
[V:2] d4e4 | 
[V:3] z8 | 
[V:4] F,2G,2E,4 | 
[V:1] A6GF | 
[V:2] f8 | 
[V:3] z8 | 
[V:4] D,8 | 
[V:1] E4z4 | 
[V:2] g8 | 
[V:3] z8 | 
[V:4] z4C,4 | 
[V:1] A4G2E2 | 
[V:2] f4e4 | 
[V:3] z8 | 
[V:4] D,4E,2C,2- | 
[V:1] F3GE3D | 
[V:2] d4c4 | 
[V:3] z8 | 
[V:4] C,2B,,2C,3B,, | 
[V:1] E2F4G2 | 
[V:2] A4_B4 | 
[V:3] z8 | 
[V:4] C,2D,4E,2 | 
[V:1] E2A3G_B2- | 
[V:2] c4d4 | 
[V:3] z8 | 
[V:4] C,2F,3E,G,2- | 
[V:1] BAGFG4 | 
[V:2] _B4_B4 | 
[V:3] z8 | 
[V:4] G,F,E,D,E,4 | 
[V:1] A4z4 | 
[V:2] A6_B2 | 
[V:3] z8 | 
[V:4] F,8 | 
[V:1] F4G2_B2- | 
[V:2] c4d2f2 | 
[V:3] A3A_B4 | 
[V:4] z8 | 
[V:1] B2c2A4 | 
[V:2] e3df4 | 
[V:3] G4F4 | 
[V:4] z8 | 
[V:1] F4c4 | 
[V:2] z8 | 
[V:3] z8 | 
[V:4] F,8 | 
[V:1] c4d4 | 
[V:2] c4g4 | 
[V:3] z8 | 
[V:4] A,3A,_B,4 | 
[V:1] _B4c4 | 
[V:2] g4a4 | 
[V:3] z8 | 
[V:4] G,4F,4 | 
[V:1] A4G4 | 
[V:2] f4g4 | 
[V:3] F4c4 | 
[V:4] z8 | 
[V:1] z4_B4- | 
[V:2] e4d4 | 
[V:3] c4d4 | 
[V:4] C,4G,4 | 
[V:1] B2A2A3_B | 
[V:2] d4c4- | 
[V:3] _B4c4 | 
[V:4] G,4A,4 | 
[V:1] c3_BG2B2- | 
[V:2] c2d2e4- | 
[V:3] A4z4 | 
[V:4] F,4G,4 | 
[V:1] BAc3_BAG | 
[V:2] e2c2c4- | 
[V:3] G4G4 | 
[V:4] E,8 | 
[V:1] _B2A3GF2- | 
[V:2] c4_B3A | 
[V:3] F4F4 | 
[V:4] D,4D,4 | 
[V:1] F2E2E2D2 | 
[V:2] c8- | 
[V:3] G4G4 | 
[V:4] C,8 | 
[V:1] F8 |]  
[V:2] c8 |]  
[V:3] F8 |]  
[V:4] F,8 |]  



